communes/14.svg

<?xml version="1.0" encoding="UTF-8" standalone="no"?>
<svg
   xmlns:dc="http://purl.org/dc/elements/1.1/"
   xmlns:cc="http://creativecommons.org/ns#"
   xmlns:rdf="http://www.w3.org/1999/02/22-rdf-syntax-ns#"
   xmlns:svg="http://www.w3.org/2000/svg"
   xmlns="http://www.w3.org/2000/svg"
   xmlns:xlink="http://www.w3.org/1999/xlink"
   xmlns:sodipodi="http://sodipodi.sourceforge.net/DTD/sodipodi-0.dtd"
   xmlns:inkscape="http://www.inkscape.org/namespaces/inkscape"
   version="1.0"
   width="217.39236"
   height="254.64134"
   id="svg2780"
   sodipodi:docname="14.svg">
  <metadata
     id="metadata12">
    <rdf:RDF>
      <cc:Work
         rdf:about="">
        <dc:format>image/svg+xml</dc:format>
        <dc:type
           rdf:resource="http://purl.org/dc/dcmitype/StillImage" />
      </cc:Work>
    </rdf:RDF>
  </metadata>
  <sodipodi:namedview
     pagecolor="#ffffff"
     bordercolor="#666666"
     borderopacity="1"
     objecttolerance="10"
     gridtolerance="10"
     guidetolerance="10"
     inkscape:pageopacity="0"
     inkscape:pageshadow="2"
     inkscape:window-width="640"
     inkscape:window-height="480"
     id="namedview10" />
  <defs
     id="defs2782" />
  <g
     transform="translate(-12.922595,-803.39865)"
     id="layer1">
    <path
       d="M 13.922595,804.39865 L 17.838815,968.90926 C 20.636109,1086.4169 222.60144,1086.4169 225.39874,968.90926 L 229.31496,804.39865 L 13.922595,804.39865 z"
       id="path3282"
       style="fill:#ffffff;fill-opacity:1;fill-rule:evenodd;stroke:#000000;stroke-width:2;stroke-linecap:butt;stroke-miterlimit:4;stroke-dashoffset:0;stroke-opacity:1" />
    <g
       transform="translate(-3.4469233,0)"
       id="g3252"
       style="fill:#d64129;fill-opacity:1;stroke:#000000;stroke-opacity:1">
      <path
         d="M 108.94199,92.61896 C 103.31964,52.661437 103.8061,43.157229 119.57419,23.720777 C 120.32314,22.79759 120.77372,21.833 119.3097,20.795079 C 89.179385,-0.56588185 79.643857,73.520633 101.99342,106.29921 C 79.719207,78.694414 69.980246,32.860738 82.66704,22.349226 C 84.686599,20.675942 82.557688,18.458333 80.796745,18.483951 C 38.985531,19.094017 67.827303,91.243855 95.289015,118.84973 C 65.810852,94.545115 34.765499,64.72081 47.754866,40.553432 C 48.532549,39.106513 47.039698,38.834187 45.759885,39.181882 C 2.3337308,50.94586 63.789759,119.17685 89.179385,127.11815 C 52.114793,119.68413 32.935147,101.97499 31.171584,93.04638 C 31.019369,92.275744 29.646501,92.187824 29.238946,92.85935 C 10.329837,124.01575 60.605416,131.65234 90.085877,137.80877 C 68.873672,140.53229 32.405253,141.73228 28.303798,132.44726 C 27.499895,130.62736 25.972956,132.15545 25.685385,133.19538 C 17.405394,163.13784 61.676148,153.72625 81.66955,150.40209 C 76.450303,163.26353 43.299789,172.35468 32.917192,166.736 C 31.838195,166.15209 31.042107,165.82873 30.672839,167.7335 C 25.985448,191.91211 60.527127,187.04084 88.776671,163.86822 C 76.115678,190.54843 54.140833,198.88738 44.637708,198.03228 C 41.69782,197.76774 41.672551,198.49041 42.206325,200.65069 C 48.899586,227.73955 88.761871,195.29441 96.382538,169.85316 C 89.666458,205.88597 76.946441,218.77664 67.183298,222.03534 C 65.58158,222.56995 66.038344,223.33949 66.571574,224.31005 C 75.283657,240.16742 96.963194,221.77752 99.571151,192.2224 L 103.40286,193.89878 C 98.67026,215.05004 100.14925,234.10798 116.91059,231.85875 C 117.17273,231.82357 119.17506,230.35185 117.61039,229.08647 C 105.51291,219.30302 122.00307,188.81832 108.7633,171.12662 C 54.874678,172.93176 99.247326,125.02769 108.94199,92.61896 z"
         transform="translate(0,804.33069)"
         id="path3250"
         style="opacity:1;fill:#d64129;fill-opacity:1;fill-rule:evenodd;stroke:#000000;stroke-width:1px;stroke-linecap:butt;stroke-linejoin:miter;marker:none;marker-start:none;marker-mid:none;marker-end:none;stroke-miterlimit:4;stroke-dasharray:none;stroke-dashoffset:0;stroke-opacity:1;visibility:visible;display:inline;overflow:visible;enable-background:accumulate" />
      <path
         d="M 88.409952,162.76743 C 95.457502,153.55928 95.953859,142.40947 93.642189,133.03712 C 102.75943,140.95093 116.40054,133.00936 117.08783,124.97873 C 117.83232,116.27996 113.32938,108.06894 109.36611,93.958239 C 106.00984,82.008681 93.824801,78.210568 96.411269,92.707764 C 92.966198,84.544918 84.222608,84.943573 88.573754,97.682687 C 82.463905,87.352307 76.468818,93.657615 82.013355,101.25061 C 75.784142,95.594736 68.920299,101.19574 77.602877,108.41521 C 70.340673,101.33239 61.199558,106.92605 72.982139,114.8613 C 62.604102,111.90739 60.741369,118.74152 70.857283,124.01575 C 58.931394,119.01344 55.688463,127.77391 69.236361,131.63711 C 57.961613,130.54338 55.494986,138.77486 69.163321,140.52377 C 57.981112,140.75866 55.045915,151.62705 69.510797,151.24679 C 61.712887,152.88038 55.263812,162.19452 70.348157,161.45855 C 61.829546,166.6786 60.051217,175.20807 73.559747,171.9322 C 66.695819,176.54773 67.548178,185.73004 79.794064,179.96377 C 73.427182,184.7113 76.115035,198.11087 86.947641,185.48022 C 82.938367,197.62595 90.799219,198.77816 96.350761,187.44495 C 96.092875,198.42364 106.51556,198.80527 109.60296,188.36205 C 113.09744,176.54192 110.60412,162.18557 88.409952,162.76743 z"
         transform="translate(0,804.33069)"
         id="path2476"
         style="opacity:1;fill:#d64129;fill-opacity:1;fill-rule:evenodd;stroke:#000000;stroke-width:0.99921262;stroke-linecap:butt;stroke-linejoin:round;marker:none;marker-start:none;marker-mid:none;marker-end:none;stroke-miterlimit:4;stroke-dasharray:none;stroke-dashoffset:0;stroke-opacity:1;visibility:visible;display:inline;overflow:visible;enable-background:accumulate" />
    </g>
    <use
       transform="matrix(-1,0,0,1,243.23756,0)"
       id="use3256"
       style="fill:#b20f18;fill-opacity:1"
       x="0"
       y="0"
       width="248.03149"
       height="248.03149"
       xlink:href="#g3252" />
  </g>
</svg>

<?xml version="1.0" encoding="UTF-8"?>
<svg version="1.0" viewBox="0 0 217.39 254.64" xmlns="http://www.w3.org/2000/svg" xmlns:cc="http://creativecommons.org/ns#" xmlns:dc="http://purl.org/dc/elements/1.1/" xmlns:rdf="http://www.w3.org/1999/02/22-rdf-syntax-ns#" xmlns:xlink="http://www.w3.org/1999/xlink">
<metadata>
<rdf:RDF>
<cc:Work rdf:about="">
<dc:format>image/svg+xml</dc:format>
<dc:type rdf:resource="http://purl.org/dc/dcmitype/StillImage"/>
</cc:Work>
</rdf:RDF>
</metadata>
<g transform="translate(-12.923 -803.4)">
<path d="m13.923 804.4 3.9162 164.51c2.7973 117.51 204.76 117.51 207.56 0l3.9162-164.51h-215.39z" fill="#fff" fill-rule="evenodd" stroke="#000" stroke-width="2"/>
<g id="a" transform="translate(-3.4469)">
<path transform="translate(0 804.33)" d="m108.94 92.619c-5.6224-39.958-5.1359-49.462 10.632-68.898 0.74895-0.92319 1.1995-1.8878-0.26449-2.9257-30.13-21.361-39.666 52.726-17.316 85.504-22.274-27.605-32.013-73.438-19.326-83.95 2.0196-1.6733-0.10935-3.8909-1.8703-3.8653-41.811 0.61007-12.969 72.76 14.492 100.37-29.478-24.305-60.524-54.129-47.534-78.296 0.77768-1.4469-0.71517-1.7192-1.995-1.3716-43.426 11.764 18.03 79.995 43.42 87.936-37.065-7.434-56.244-25.143-58.008-34.072-0.15222-0.77064-1.5251-0.85856-1.9326-0.18703-18.909 31.156 31.366 38.793 60.847 44.949-21.212 2.7235-57.681 3.9235-61.782-5.3615-0.8039-1.8199-2.3308-0.29181-2.6184 0.74812-8.28 29.942 35.991 20.531 55.984 17.207-5.2192 12.861-38.37 21.953-48.752 16.334-1.079-0.58391-1.8751-0.90727-2.2444 0.9975-4.6874 24.179 29.854 19.307 58.104-3.8653-12.661 26.68-34.636 35.019-44.139 34.164-2.9399-0.26454-2.9652 0.45813-2.4314 2.6184 6.6933 27.089 46.556-5.3563 54.176-30.798-6.7161 36.033-19.436 48.923-29.199 52.182-1.6017 0.53461-1.145 1.3042-0.61172 2.2747 8.7121 15.857 30.392-2.5325 33-32.088l3.8317 1.6764c-4.7326 21.151-3.2536 40.209 13.508 37.96 0.26214-0.03518 2.2645-1.5069 0.6998-2.7723-12.097-9.7834 4.3927-40.268-8.8471-57.96-53.889 1.8051-9.516-46.099 0.17869-78.508z" fill="#d64129" fill-rule="evenodd" stroke="#000" stroke-width="1px"/>
<path transform="translate(0 804.33)" d="m88.41 162.77c7.0476-9.2082 7.5439-20.358 5.2322-29.73 9.1172 7.9138 22.758-0.02776 23.446-8.0584 0.74449-8.6988-3.7584-16.91-7.7217-31.02-3.3563-11.95-15.541-15.748-12.955-1.2505-3.4451-8.1628-12.189-7.7642-7.8375 4.9749-6.1098-10.33-12.105-4.0251-6.5604 3.5679-6.2292-5.6559-13.093-0.05487-4.4105 7.1646-7.2622-7.0828-16.403-1.4892-4.6207 6.4461-10.378-2.9539-12.241 3.8802-2.1249 9.1544-11.926-5.0023-15.169 3.7582-1.6209 7.6214-11.275-1.0937-13.741 7.1378-0.07304 8.8867-11.182 0.23489-14.117 11.103 0.34748 10.723-7.7979 1.6336-14.247 10.948 0.83736 10.212-8.5186 5.22-10.297 13.75 3.2116 10.474-6.8639 4.6155-6.0116 13.798 6.2343 8.0316-6.3669 4.7475-3.679 18.147 7.1536 5.5164-4.0093 12.146 3.8516 13.298 9.4031 1.9647-0.25789 10.979 10.165 11.36 13.252 0.9171 3.4945-11.82 1.0012-26.176-21.193-25.595z" fill="#d64129" fill-rule="evenodd" stroke="#000" stroke-linejoin="round" stroke-width=".99921"/>
</g>
<use transform="matrix(-1 0 0 1 243.24 0)" width="248.03149" height="248.03149" fill="#b20f18" xlink:href="#a"/>
</g>
</svg>
